lib/logo_tmp/nrk-logo-nrk-p1-on-light.svg

<svg width="62" height="16" viewBox="0 0 62 16" fill="none" xmlns="http://www.w3.org/2000/svg">
<path d="M0 15V1.00126H4.59339V15H0ZM10.8428 3.22923L13.4844 15H8.45737L5.30307 1.00126H8.12254C8.76907 0.992871 9.39641 1.22078 9.88691 1.64211C10.3782 2.04577 10.7158 2.60614 10.8428 3.22923ZM14.1744 15V1.00126H18.7678V15H14.1744ZM22.2372 6.32477C21.7422 6.3296 21.2552 6.20009 20.828 5.95011C20.4064 5.70646 20.0563 5.35628 19.8127 4.93469C19.5624 4.50738 19.4329 4.02021 19.4378 3.52503C19.4321 3.03286 19.5618 2.5486 19.8127 2.12515C20.0589 1.70814 20.4086 1.36177 20.828 1.1196C21.2553 0.869909 21.7423 0.740423 22.2372 0.744938C22.7292 0.739639 23.2133 0.86924 23.6369 1.1196C24.0521 1.36389 24.3981 1.70998 24.6424 2.12515C24.893 2.54872 25.0226 3.0329 25.0172 3.52503C25.0218 4.02017 24.8923 4.50725 24.6424 4.93469C24.4007 5.35443 24.0542 5.70432 23.6369 5.95011C23.2133 6.20096 22.7289 6.3306 22.2366 6.32477H22.2372ZM25.7269 15V1.00126H30.3207V15H25.7269ZM36.136 8.65126C36.1489 8.66484 36.2475 8.82585 36.4317 9.13431C36.6159 9.44276 36.8558 9.83712 37.1513 10.3173C37.447 10.7973 37.759 11.3066 38.0874 11.8453C38.4157 12.384 38.7247 12.8934 39.0143 13.3734C39.3028 13.8534 39.6313 14.3956 40 15H34.9531C34.6375 14.4874 34.3515 14.024 34.0952 13.61C33.8389 13.1959 33.5665 12.749 33.2778 12.2692C32.9884 11.7899 32.7024 11.3233 32.4196 10.8694C32.1368 10.4154 31.8938 10.0179 31.6905 9.67656C31.4863 9.33502 31.3449 9.10497 31.2663 8.98645C31.0713 8.69234 30.9559 8.35267 30.9315 8.00062C30.951 7.66275 31.0597 7.33613 31.2466 7.05395C31.3254 6.92251 31.47 6.68916 31.6803 6.35397C31.8906 6.0188 32.137 5.62122 32.4196 5.16117C32.7021 4.70112 32.9882 4.23119 33.2778 3.75143C33.5674 3.27166 33.8398 2.82143 34.0952 2.40081C34.3519 1.98063 34.6379 1.51401 34.9531 1.00094H40L36.0962 7.3694C35.9754 7.55848 35.9073 7.77639 35.8991 8.00062C35.9121 8.23603 35.9942 8.46236 36.1353 8.65126H36.136Z" fill="#0A2343"/>
<path d="M54.8361 2.81553C54.5938 2.44154 54.2827 2.11694 53.9193 1.859C53.5143 1.57548 53.0645 1.36218 52.5886 1.22809C52.0109 1.06863 51.4134 0.99241 50.8142 1.0017H45.3333V14.9996H47.4034V9.97218H50.9719C51.7773 9.98441 52.5721 9.78741 53.2786 9.40044C53.9554 9.02518 54.5176 8.47311 54.9051 7.80317C55.3204 7.06379 55.5281 6.22593 55.5064 5.37818C55.5082 4.92007 55.4553 4.46337 55.3487 4.01781C55.2463 3.59118 55.073 3.18479 54.8361 2.81553ZM53.0026 7.06417C52.7377 7.47994 52.3476 7.80094 51.8887 7.98095C51.3317 8.19171 50.7391 8.29216 50.1438 8.27669H47.4034V2.71693H50.4199C50.996 2.69517 51.5695 2.80637 52.0957 3.04191C52.5143 3.24417 52.8566 3.57604 53.0716 3.98825C53.2994 4.45061 53.4111 4.96154 53.3969 5.47677C53.4197 6.0327 53.2829 6.58351 53.0026 7.06417Z" fill="#1767CE"/>
<path d="M60.6128 1.00171C60.2971 1.15943 59.998 1.31388 59.7154 1.46503C59.4328 1.61618 59.1569 1.75745 58.8877 1.88888C58.6178 2.02032 58.345 2.15178 58.0692 2.28321C57.7934 2.41465 57.5107 2.53293 57.2214 2.63808C56.9322 2.74366 56.6235 2.8487 56.2951 2.95319L56.7285 4.62899C57.1228 4.5107 57.481 4.39242 57.803 4.27413C58.1184 4.15876 58.4278 4.02717 58.7296 3.87983C59.0256 3.73526 59.3213 3.57751 59.6168 3.40664L59.627 3.40075V14.9999H61.6771V1.00203L60.6128 1.00171Z" fill="#1767CE"/>
</svg>

<svg xmlns="http://www.w3.org/2000/svg" viewBox="0 0 62 16"><path fill="#0A2343" d="M0 15V1.001h4.593V15H0ZM10.843 3.23 13.484 15H8.457L5.303 1.001h2.82a2.655 2.655 0 0 1 1.764.641c.491.404.829.964.956 1.587ZM14.174 15V1.001h4.594V15h-4.594Zm8.063-8.675a2.737 2.737 0 0 1-1.409-.375 2.778 2.778 0 0 1-1.015-1.015 2.735 2.735 0 0 1-.375-1.41 2.685 2.685 0 0 1 .375-1.4 2.812 2.812 0 0 1 3.824-1.005c.415.244.761.59 1.005 1.005.251.424.38.908.375 1.4.005.495-.125.982-.375 1.41a2.8 2.8 0 0 1-1.005 1.015c-.424.251-.908.38-1.4.375ZM25.727 15V1.001h4.594V15h-4.594Zm10.409-6.349c.013.014.111.175.296.483.184.309.424.703.72 1.183a384.573 384.573 0 0 1 1.862 3.056c.289.48.617 1.023.986 1.627h-5.047l-.858-1.39c-.256-.414-.529-.861-.817-1.34-.29-.48-.576-.947-.858-1.4a71.38 71.38 0 0 1-.73-1.193 21.1 21.1 0 0 0-.424-.69A2.04 2.04 0 0 1 30.932 8c.019-.338.128-.665.315-.947.078-.131.223-.365.433-.7a216.97 216.97 0 0 0 1.598-2.603l.817-1.35.858-1.4H40l-3.904 6.368c-.12.19-.189.407-.197.632.013.235.095.461.236.65h.001Z"/><path fill="#1767CE" d="M54.836 2.816a3.52 3.52 0 0 0-.917-.957 4.402 4.402 0 0 0-1.33-.63 6.302 6.302 0 0 0-1.775-.227h-5.48V15h2.07V9.972h3.568c.805.012 1.6-.185 2.307-.572a4.272 4.272 0 0 0 1.626-1.597c.415-.74.623-1.577.601-2.425a5.75 5.75 0 0 0-.157-1.36 3.922 3.922 0 0 0-.513-1.202Zm-1.833 4.248a2.33 2.33 0 0 1-1.114.917c-.557.21-1.15.311-1.745.296h-2.74v-5.56h3.016c.576-.022 1.15.09 1.676.325.418.202.76.534.976.946.227.463.34.974.325 1.489a2.914 2.914 0 0 1-.394 1.587ZM60.613 1.002c-.316.157-.615.312-.898.463a25.18 25.18 0 0 1-.827.424c-.27.131-.543.263-.819.394-.276.132-.558.25-.848.355-.289.106-.597.21-.926.315l.433 1.676a18.79 18.79 0 0 0 1.075-.355c.315-.115.625-.247.927-.394.296-.145.591-.302.887-.473l.01-.006V15h2.05V1.002h-1.064Z"/></svg>
